!!!!SEGMENT: pl-gd--ee-1638--008-012_marenzio-luca--il-quarto-libro-de-madrigalia-a-sei-voci-caro-aminta.krn
!!!cenid: 15xx:874
!!!COM: Marenzio, Luca
!!!COM-rismID: pe30003955
!!!CDT: ~1553-1599/08/22
!!!CNT: Italian
!!!GTL: Il Quarto Libro de madrigalia a sei voci
!!!OTL: Caro Aminta
!!!OMV: 012
!!!PDT: 1587
!!!AGN:
!!!SMS-siglum: PL-GD
!!!SMS-shelfmark: Ee 1638
!!!SMS-variant:
!!!SMS-altvar:
!!!SMS-shelfwork: 008-012 G
!!!NIFC-rismSourceID: 990039254
!!!NIFC-islandoraID: pl-gd:57883
!!!URL-pdf-islandora: https://repozytorium.nifc.pl/islandora/object/pl-gd%3A57883/datastream/PDF/view
!!!URL-scan: https://polish.musicsources.pl/pl/lokalizacje/galeria/klocki-introligatorskie/655 @EN{Scan on Polish Music Sources Website} @PL{Skany w portalu Dziedzictwo Muzyki Polskiej w otwartym dostępie}
!!!ONB-nifc: UWAGA: zbiór na stronach: Canto: s. 706-716, Alto: s. 554-564, Tenore: s. 402-412, Basso: s.250-260, Quinto: s. 98-108, Sesto: s. 16-26. Uwaga: utwory podzielone wg tytułów w spisach treści dostępnych na końcu każdej księgi głosowej.
!!!AIN: 1 alto 1 bass 2 soprn 2 tenor
!!!key: e:phr
**kern	**text	**kern	**text	**kern	**text	**kern	**text	**kern	**text	**kern	**text
*part6	*part6	*part5	*part5	*part4	*part4	*part3	*part3	*part2	*part2	*part1	*part1
*staff6	*staff6	*staff5	*staff5	*staff4	*staff4	*staff3	*staff3	*staff2	*staff2	*staff1	*staff1
*I"SESTO	*	*I"QUINTO	*	*I"BASSO	*	*I"TENORE	*	*I"ALTO	*	*I"CANTO	*
*I'voce umana 2	*	*I'voce umana 1	*	*I'B	*	*I'T	*	*I'A	*	*I'S	*
*Itenor	*	*Isoprn	*	*Ibass	*	*Itenor	*	*Ialto	*	*Isoprn	*
*ICvox	*	*ICvox	*	*ICvox	*	*ICvox	*	*Cvox	*	*ICvox	*
*clefC4	*	*clefC2	*	*clefF4	*	*clefC4	*	*clefC3	*	*clefC1	*
*k[]	*	*k[]	*	*k[]	*	*k[]	*	*k[]	*	*k[]	*
*e:phr	*	*e:phr	*	*e:phr	*	*e:phr	*	*e:phr	*	*e:phr	*
*M2/1	*	*M2/1	*	*M2/1	*	*M2/1	*	*M2/1	*	*M2/1	*
*met(c)	*	*	*	*	*	*	*	*	*	*	*
=1-	=1-	=1-	=1-	=1-	=1-	=1-	=1-	=1-	=1-	=1-	=1-
!LO:TX:b:t=CAro Aminta	!	!	!	!	!	!	!	!	!	!	!
!LO:TX:a:t=Prima parte.	!	!	!	!	!	!	!	!	!	!	!
*	*	*met(c)	*	*	*	*	*	*	*	*	*
!	!	!LO:TX:a:t=Prima parte.	!	!	!	!	!	!	!	!	!
*	*	*	*	*met(c)	*	*	*	*	*	*	*
!	!	!	!	!LO:TX:a:t=Prima parte.	!	!	!	!	!	!	!
*	*	*	*	*	*	*met(c)	*	*	*	*	*
!	!	!	!	!	!	!LO:TX:a:t=Prima parte.	!	!	!	!	!
*	*	*	*	*	*	*	*	*met(c)	*	*	*
!	!	!	!	!	!	!	!	!LO:TX:a:t=Prima parte.	!	!	!
*	*	*	*	*	*	*	*	*	*	*met(c)	*
!	!	!	!	!	!	!	!	!	!	!LO:TX:a:t=Prima parte.	!
00r	.	1e	CA-	1E	CA-	00r	.	1B	CA-	1g#X	CA-
.	.	2e/	-ro A-	2E\	-ro A-	.	.	2B/	-ro A	2g#/	-ro A
.	.	2.f#X\	-min-	2.D/	-min-	.	.	2.d\	min-	2.a\	min-
=2-	=2-	=2-	=2-	=2-	=2-	=2-	=2-	=2-	=2-	=2-	=2-
.	.	.	.	.	.	.	.	.	.	.	.
.	.	4f#X\	-ta	4D/	-ta	.	.	4d\	-ta	4a\	-ta
.	.	2f#\	pur	2D/	pur	.	.	2d\	pur	2a\	pur
.	.	1g	vuoi	1G	vuoi	.	.	1d	vuoi	1b	vuoi
=3-	=3-	=3-	=3-	=3-	=3-	=3-	=3-	=3-	=3-	=3-	=3-
00r	.	4g\	Laſ-	4G\	Laſ-	00r	.	4d\	Laſ-	4b\	Laſ-
.	.	4g\	-ci-	4E\	-ci-	.	.	4e\	-ci-	4cc#X\	-ci-
.	.	2a\	-ar	2D/	-ar	.	.	2f#X\	-ar	2dd\	-ar
.	.	2r	.	2r	.	.	.	2r	.	2r	.
.	.	1e\	ahi-	1C/	ahi-	.	.	1g\	ahi-	1ee\	ahi-
=4-	=4-	=4-	=4-	=4-	=4-	=4-	=4-	=4-	=4-	=4-	=4-
.	.	.	.	.	.	.	.	.	.	.	.
.	.	4g#X\	-me	4E\	-me	.	.	4e\	-me	4b\	-me
.	.	4a\	quel	4F\	quel	.	.	4c/	quel	4a\	quel
.	.	2g#X\	fio-	2E\	fio-	.	.	2e\	fio-	2b\	fio-
!	!	!LO:SIC:v:t=custos a	!	!LO:SIC:v:t=custos A	!	!	!	!LO:SIC:v:t=custos e	!	!	!
.	.	2g#\	-re	2E\	-re	.	.	2e\	-re	2b\	-re
=5-	=5-	=5-	=5-	=5-	=5-	=5-	=5-	=5-	=5-	=5-	=5-
!	!	!	!	!	!	!	!	!LO:LB:g=original	!	!	!
!	!	!	!	!	!	!	!	!LO:LB:g=original	!	!	!
!	!	!	!	!LO:LB:g=original	!	!	!	!	!	!	!
!	!	!LO:LB:g=original	!	!	!	!	!	!	!	!	!
00r	.	4a\	Che	4A\	Che	00r	.	4e\	Che	4ccny\	Che
!	!	!	!	!	!	!	!	!	!	!LO:SIC:v:t=custos ee	!
.	.	4b\	tua	4G\	tua	.	.	4g\	tua	4dd\	tua
!	!	!	!	!	!	!	!	!	!	!LO:LB:g=original	!
.	.	2.cc\	Fil-	2.c\	Fil-	.	.	2.g\	Fil-	2.ee\	Fil-
.	.	2a\	-li	2F\	-li	.	.	2fny\	-li	2cc\	-li
.	.	4gny\	col	4G\	col	.	.	4d\	col	4b\	col
=6-	=6-	=6-	=6-	=6-	=6-	=6-	=6-	=6-	=6-	=6-	=6-
.	.	4f\	co-	4D/	co-	.	.	4d\	co-	4a\	co-
.	.	8f\	-re	8D/	-re	.	.	8d\	-re	8a\	-re
.	.	8e/	Già	8C/	Già	.	.	8e\	Già	8a\	Già
.	.	4f#X\	ti	4D/	ti	.	.	4d\	ti	4a\	ti
.	.	4g\	do-	4E\	do-	.	.	4B/	do-	4gny/	do-
.	.	1f#X	-nò	1D	-nò	.	.	1d	-nò	1a	-nò
=7-	=7-	=7-	=7-	=7-	=7-	=7-	=7-	=7-	=7-	=7-	=7-
0r	.	4g\	ne`	4C/	ne`	0r	.	4G/	ne`	4e/	ne`
.	.	2e/	piu	2C/	piu	.	.	2c/	piu	2g/	piu
.	.	4d/	ver-	4D/	ver-	.	.	4A/	ver-	4f/	ver-
.	.	4B/	-dian-	4E\	-dian-	.	.	4G#X/	-dian-	4e/	-d`an-
.	.	4A/	-ni	4F\	-ni	.	.	2A/	-ni	4d/	-ni
.	.	2B/	fuo-	2E\	fuo-	.	.	.	.	2e/	fuo-
.	.	.	.	.	.	.	.	4G#X/	fuo-	.	.
=8-	=8-	=8-	=8-	=8-	=8-	=8-	=8-	=8-	=8-	=8-	=8-
!	!	!	!	!LO:SIC:v:t=custos D	!	!	!	!	!	!	!
1r	.	1c#X	-i	1AA	-i	1r	.	1A	-i	1e	-i
!	!	!	!	!	!	!	!	!LO:SIC:v:t=custos B	!	!	!
!	!	!	!	!LO:LB:g=original	!	!	!	!	!	!	!
4r	.	4r	.	2D/	Ne in	4r	.	1r	.	4r	.
!	!	!LO:SIC:v:t=custos f	!	!	!	!	!	!	!	!	!
4d\	Ne in	4f#X\	Ne in	.	.	4A/	Ne in	.	.	4a\	Ne in
!	!	!LO:LB:g=original	!	!	!	!	!	!	!	!	!
4.d\	queſ-	4.f#\	queſ-	4.D/	queſ-	4.A/	queſ-	.	.	4.a\	queſ-
!	!	!	!	!	!	!	!	!	!	!LO:SIC:v:t=custos a	!
8d\	-ta	8f#\	-ta	8D/	-ta	8A/	-ta	.	.	8a\	-ta
=9-	=9-	=9-	=9-	=9-	=9-	=9-	=9-	=9-	=9-	=9-	=9-
!	!	!	!	!	!	!	!	!	!	!LO:LB:g=original	!
4d\	di-	4f#X\	di-	4D/	di-	4A/	di-	4r	.	4a\	di-
!	!	!	!	!	!	!	!	!LO:LB:g=original	!	!	!
4d\	-par-	4g\	-par-	4GG/	-par-	4G/	-par-	4B/	Ne in	4b\	-par-
1c	-ti-	1g	-ti-	1C	-ti-	2G/	-ti-	4.e\	queſ-	1cc	-ti-
.	.	.	.	.	.	.	.	8e\	-ta	.	.
.	.	.	.	.	.	1E	-ta	4e\	di-	.	.
.	.	.	.	.	.	.	.	4e\	-par-	.	.
2c\	-ta	2a\	-ta	2AA/	-ta	.	.	2e\	-ti-	2cc\	-ta
=10-	=10-	=10-	=10-	=10-	=10-	=10-	=10-	=10-	=10-	=10-	=10-
4r	.	00r	.	2.E\	Dir-	2.G#X/	Dir-	2e\	-ta	2.b\	Dir-
2e\	Dir-	.	.	.	.	.	.	.	.	.	.
.	.	.	.	.	.	.	.	2.B/	Dir-	.	.
4e\	-li al-	.	.	4E\	-li al-	4G#/	-li al-	.	.	4b\	-li al-
!	!	!	!	!	!	!LO:SIC:v:t=custos A	!	!	!	!	!
1e	-men	.	.	1E	-men	1G#	-men	.	.	1b	-men
.	.	.	.	.	.	.	.	4B/	-li al-	.	.
.	.	.	.	.	.	.	.	2B/	-men	.	.
=11-	=11-	=11-	=11-	=11-	=11-	=11-	=11-	=11-	=11-	=11-	=11-
!	!	!	!	!	!	!LO:LB:g=original	!	!	!	!	!
2.f\	reſ-	.	.	2.D/	reſ-	2.A/	reſ-	0r	.	2.dd\	reſ-
!LO:SIC:v:t=custos e	!	!	!	!	!	!	!	!	!	!	!
4e\	-ta in	.	.	4C/	-ta in	4c\	-ta in	.	.	4g/	-ta in
!LO:LB:g=original	!	!	!	!	!	!	!	!	!	!	!
1e	pa-	.	.	1C	pa-	1c	pa-	.	.	1g	pa-
=12-	=12-	=12-	=12-	=12-	=12-	=12-	=12-	=12-	=12-	=12-	=12-
1e	-ce	2r	.	1C	-ce	1.c	-ce	2r	.	1g	-ce
.	.	4r	.	.	.	.	.	4r	.	.	.
.	.	4e/	à	.	.	.	.	4c/	à	.	.
4r	.	2g\	Dio	4r	.	.	.	2e\	Dio	4r	.
4c\	à	.	.	4C/	à	.	.	.	.	4e/	à
2B\	Dio	4r	.	2E\	Dio	4r	.	4r	.	2g/	Dio
.	.	4e/	à	.	.	4G/	à	4g\	à	.	.
=13-	=13-	=13-	=13-	=13-	=13-	=13-	=13-	=13-	=13-	=13-	=13-
4r	.	2g\	Dio	4r	.	2c\	Dio	1.e	Dio	4r	.
4c\	à	.	.	4C/	à	.	.	.	.	4e/	à
!	!	!	!	!LO:SIC:v:t=custos E	!	!	!	!	!	!	!
2B\	Dio	4r	.	1E	Dio	4r	.	.	.	2g/	Dio
.	.	4e/	à	.	.	4B\	à	.	.	.	.
4r	.	4.g\	Dio	.	.	2.e\	Dio	.	.	4r	.
4E/	à	.	.	.	.	.	.	.	.	4b\	à
.	.	8a\	à	.	.	.	.	.	.	.	.
!	!	!	!	!LO:LB:g=original	!	!	!	!	!	!	!
2G/	Dio	4b\	Dio	2E\	mia	.	.	4r	.	2.ee\	Dio
.	.	4e/	à	.	.	4c\	mia	4E/	à	.	.
=14-	=14-	=14-	=14-	=14-	=14-	=14-	=14-	=14-	=14-	=14-	=14-
4r	.	2g\	Dio	0E	vi-	4B\	vi-	2.e\	Dio	.	.
4E/	à	.	.	.	.	4e\	-ta	.	.	4cc\	mia
!	!	!LO:SIC:v:t=custos E	!	!	!	!	!	!	!	!LO:SIC:v:t=custos a	!
4G#X/	Dio	2e/	mia	.	.	4r	.	.	.	4b\	vi-
!	!	!	!	!	!	!	!	!LO:SIC:v:t=custos B	!	!	!
!	!	!	!	!	!	!	!	!	!	!LO:LB:g=original	!
4A/	mia	.	.	.	.	4e\	mia	4c/	mia	2a\	.
!	!	!	!	!	!	!	!	!LO:LB:g=original	!	!	!
!	!	!LO:LB:g=original	!	!	!	!	!	!	!	!	!
1B	vi-	1e	vi-	.	.	1E	vi-	1B	vi-	.	.
.	.	.	.	.	.	.	.	.	.	8g#X/	.
.	.	.	.	.	.	.	.	.	.	8f#X/	.
.	.	.	.	.	.	.	.	.	.	2g#X/	.
=15-	=15-	=15-	=15-	=15-	=15-	=15-	=15-	=15-	=15-	=15-	=15-
1c#X	-ta	1e	-ta	1AA	-ta	1E	-ta	1A	-ta	1a	-ta
4r	.	4r	.	2D/	Ne in	4r	.	1r	.	4r	.
4d\	Ne in	4f#X\	Ne in	.	.	4D/	Ne	.	.	4a\	Ne
4.d\	queſ-	4.f#\	queſ-	4.D/	queſ-	4.A/	in queſ-	.	.	4.a\	in queſ-
!	!	!	!	!	!	!LO:SIC:v:t=custos A	!	!	!	!	!
8d\	-ta	8f#\	-ta	8D/	-ta	8A/	-ta	.	.	8a\	-ta
=16-	=16-	=16-	=16-	=16-	=16-	=16-	=16-	=16-	=16-	=16-	=16-
!	!	!	!	!	!	!LO:LB:g=original	!	!	!	!	!
4d\	di-	4f#X\	di-	4D/	di-	4A/	di-	4r	.	4a\	di-
!LO:SIC:v:t=custos c	!	!	!	!	!	!	!	!	!	!	!
4d\	-par-	4g\	-par-	4GG/	-par-	4G/	-par-	4B/	Ne	4b\	-par-
1cny	-ti-	1g	-ti-	1C	-ti-	2G/	-ti-	4.e\	in queſ-	1cc	-ti-
.	.	.	.	.	.	.	.	8e\	-ta	.	.
.	.	.	.	.	.	1E	-ta	4e\	di-	.	.
.	.	.	.	.	.	.	.	4e\	-par-	.	.
2c\	-ta	2a\	-ta	2AA/	-ta	.	.	2e\	-ti-	2cc\	-ta
=17-	=17-	=17-	=17-	=17-	=17-	=17-	=17-	=17-	=17-	=17-	=17-
4r	.	00r	.	2.E\	Dir-	2.G#X/	Dir-	2e\	-ta	2.b\	Dir-
2e\	Dir-	.	.	.	.	.	.	.	.	.	.
.	.	.	.	.	.	.	.	2.B/	Dir-	.	.
4e\	-li al-	.	.	4E\	-li al-	4G#/	-li al-	.	.	4b\	-li al-
1e	-men	.	.	1E	-men	1G#	-men	.	.	1b	-men
.	.	.	.	.	.	.	.	4B/	-li al-	.	.
.	.	.	.	.	.	.	.	2B/	-men	.	.
=18-	=18-	=18-	=18-	=18-	=18-	=18-	=18-	=18-	=18-	=18-	=18-
2.f\	reſ-	.	.	2.D/	reſ-	2.A/	reſ-	0r	.	2.dd\	reſ-
4e\	-ta in	.	.	4C/	-ta in	4c\	-ta in	.	.	4gny/	-ta in
1e	pa-	.	.	1C	pa-	1c	pa-	.	.	1g	pa-
=19-	=19-	=19-	=19-	=19-	=19-	=19-	=19-	=19-	=19-	=19-	=19-
!	!	!	!	!	!	!	!	!	!	!LO:SIC:v:t=custos e	!
1e	-ce	2r	.	1C	-ce	1.c	-ce	2r	.	1g	-ce
.	.	4r	.	.	.	.	.	4r	.	.	.
.	.	4e/	à	.	.	.	.	4c/	à	.	.
4r	.	2g\	Dio	4r	.	.	.	2e\	Dio	4r	.
!	!	!	!	!	!	!	!	!	!	!LO:LB:g=original	!
4c\	à	.	.	4C/	à	.	.	.	.	4e/	à
!	!	!	!	!LO:SIC:v:t=custos C	!	!	!	!	!	!	!
2B\	Dio	4r	.	2E\	Dio	4r	.	4r	.	2g/	Dio
.	.	4e/	à	.	.	4Gny/	à	4g\	à	.	.
=20-	=20-	=20-	=20-	=20-	=20-	=20-	=20-	=20-	=20-	=20-	=20-
4r	.	2g\	Dio	4r	.	2c\	Dio	1.e	Dio	4r	.
!	!	!	!	!LO:LB:g=original	!	!	!	!	!	!	!
4c\	à	.	.	4C/	à	.	.	.	.	4e/	à
2B\	Dio	4r	.	1E	Dio	4r	.	.	.	2g/	Dio
.	.	4e/	à	.	.	4B\	à	.	.	.	.
4r	.	4.g\	Dio	.	.	2e\	Dio	.	.	4r	.
4E/	à	.	.	.	.	.	.	.	.	4b\	à
.	.	8a\	mia	.	.	.	.	.	.	.	.
4.G/	Dio	4b\	vi-	2E\	mia	4r	.	4r	.	2ee\	Dio
!	!	!LO:SIC:v:t=custos e	!	!	!	!	!	!LO:SIC:v:t=custos G	!	!	!
.	.	4e/	-ta	.	.	4B\	à	4E/	à	.	.
8A/	mia	.	.	.	.	.	.	.	.	.	.
=21-	=21-	=21-	=21-	=21-	=21-	=21-	=21-	=21-	=21-	=21-	=21-
!	!	!	!	!	!	!	!	!LO:LB:g=original	!	!	!
4B\	vi-	4r	.	0.E	vi-	2.e\	Dio	4.Gny/	Dio	4r	.
!LO:SIC:v:t=custos E	!	!	!	!	!	!	!	!	!	!	!
!	!	!LO:LB:g=original	!	!	!	!	!	!	!	!	!
4E/	-ta	4e/	à	.	.	.	.	.	.	4b\	à
.	.	.	.	.	.	.	.	8A/	mia	.	.
4r	.	1g	Dio	.	.	.	.	4B/	vi-	2.ee\	Dio
!	!	!	!	!	!	!LO:SIC:v:t=custos B	!	!	!	!	!
!LO:LB:g=original	!	!	!	!	!	!	!	!	!	!	!
4E/	à	.	.	.	.	4c\	mia	4e\	-ta	.	.
!	!	!	!	!	!	!LO:LB:g=original	!	!	!	!	!
2.e\	Dio	.	.	.	.	4B\	vi-	4r	.	.	.
.	.	.	.	.	.	4e\	-ta	4E/	à	4cc\	mia
.	.	2e/	mia	.	.	4r	.	4G#X/	Dio	4b\	vi-
4c\	mia	.	.	.	.	4e\	mia	4A/	mia	2a\	.
=22-	=22-	=22-	=22-	=22-	=22-	=22-	=22-	=22-	=22-	=22-	=22-
1B	vi-	1e	vi-	.	.	1E	vi-	1B	vi-	.	.
.	.	.	.	.	.	.	.	.	.	8g#X/	.
.	.	.	.	.	.	.	.	.	.	8f#X/	.
.	.	.	.	.	.	.	.	.	.	2g#X/	.
0.A	-ta.	0.e	-ta.	0.AA	-ta.	0.E	-ta.	0.c#X	-ta.	0.a	-ta.
=23-	=23-	=23-	=23-	=23-	=23-	=23-	=23-	=23-	=23-	=23-	=23-
.	.	.	.	.	.	.	.	.	.	.	.
=-	=-	=-	=-	=-	=-	=-	=-	=-	=-	=-	=-
*-	*-	*-	*-	*-	*-	*-	*-	*-	*-	*-	*-
!!!system-decoration: [(s1,s2,s3,s4,s5,s6)]
!!!ENC: Filip Voros
!!!END: 2022-06-15
!!!ENC: Urszula Świątek
!!!END: 2022-07-25
!!!YEC: Copyright 2022 Narodowy Instytut Fryderyka Chopina (https://polishscores.org)
!!!YEM: Licence CC BY 4.0 (https://creativecommons.org/licenses/by/4.0)
